;FLAVOR:UltiGCode
;TIME:12628
;MATERIAL:12550
;MATERIAL2:0
;NOZZLE_DIAMETER:0.4
;MINX:70.761
;MINY:86.589
;MINZ:0.27
;MAXX:154.149
;MAXY:136.462
;MAXZ:31.87
;TARGET_MACHINE.NAME:Ultimaker 2+
;Generated with Cura_SteamEngine 5.6.0
M82 ;absolute extrusion mode
G0 F3000 Y50 ;avoid prime blob
G92 E0
G92 E0
G10
;LAYER_COUNT:317
;LAYER:0
M107
G0 F7200 X74.403 Y90.166 Z0.27
;TYPE:SKIRT
G11
G1 F1800 X77.449 Y89.163 E0.34634
G1 X80.73 Y89.153 E0.70069
G1 X83.306 Y89.803 E0.98762
G1 X84.574 Y90.884 E1.16758
G1 X86.559 Y90.243 E1.39286
G1 X91.111 Y90.243 E1.88447
G1 X92.88 Y90.844 E2.08625
G1 X94.208 Y89.784 E2.26976
G1 X96.811 Y89.162 E2.5588
G1 X122.608 Y89.153 E5.34488
G1 X125.298 Y90.031 E5.65048
G1 X126.187 Y90.88 E5.78324
G1 X128.153 Y90.243 E6.00644
G1 X132.709 Y90.243 E6.49848
G1 X133.796 Y90.612 E6.62246
G1 X134.03 Y90.382 E6.6579
G1 X134.611 Y90.041 E6.73065
G1 X134.926 Y89.581 E6.79086
G1 X136.871 Y87.681 E7.08452
G1 X140.041 Y86.591 E7.44655
G1 X144.869 Y86.589 E7.96798
G1 X147.461 Y87.298 E8.25819
G1 X149.555 Y88.826 E8.53815
G1 X151.526 Y91.214 E8.87256
G1 X152.676 Y93.965 E9.19458
G1 X152.677 Y96.432 E9.46102
G1 X152.869 Y96.709 E9.49742
G1 X154.149 Y99.443 E9.82345
G1 X154.149 Y111.556 E11.13165
G1 X153.624 Y113.721 E11.37225
G1 X152.535 Y115.285 E11.57808
G1 X152.315 Y116.214 E11.68118
G1 X151.615 Y117.488 E11.83818
G1 X151.4 Y117.746 E11.87445
G1 X151.397 Y121.065 E12.2329
G1 X151.925 Y121.746 E12.32596
G1 X152.919 Y124.033 E12.59528
G1 X152.916 Y128.257 E13.05147
G1 X152.023 Y131.21 E13.38466
G1 X150.244 Y133.746 E13.71922
G1 X147.71 Y135.46 E14.04962
G1 X145.15 Y136.462 E14.34652
G1 X140.915 Y136.412 E14.80393
G1 X140.166 Y136.218 E14.88749
G1 X138.815 Y135.487 E15.05339
G1 X138.265 Y135.326 E15.11528
G1 X136.459 Y134.391 E15.33492
G1 X135.18 Y132.991 E15.53972
G1 X135.051 Y132.81 E15.56372
G1 X134.213 Y132.328 E15.66813
G1 X133.889 Y131.998 E15.71808
G1 X132.406 Y132.478 E15.88642
G1 X128.242 Y132.478 E16.33613
G1 X126.438 Y132.086 E16.53551
G1 X126.062 Y131.895 E16.58106
G1 X124.754 Y132.939 E16.7618
G1 X122.141 Y133.56 E17.05187
G1 X96.604 Y133.586 E19.80986
G1 X94.05 Y132.932 E20.0946
G1 X92.766 Y131.844 E20.27636
G1 X90.809 Y132.478 E20.49853
G1 X86.648 Y132.478 E20.94792
G1 X84.835 Y132.083 E21.14831
G1 X84.465 Y131.895 E21.19314
G1 X83.137 Y132.943 E21.37584
G1 X80.525 Y133.562 E21.66575
G1 X77.579 Y133.558 E21.98392
G1 X75.42 Y133.074 E22.22288
G1 X73.757 Y131.954 E22.43942
G1 X71.727 Y129.84 E22.75595
G1 X70.761 Y126.846 E23.09571
G1 X70.761 Y95.977 E26.42957
G1 X71.227 Y93.846 E26.66515
G1 X72.4 Y92.139 E26.88884
G1 X74.403 Y90.166 E27.19249
G0 F7200 X74.617 Y90.517
G1 F1800 X77.514 Y89.563 E27.52189
G1 X80.68 Y89.553 E27.86382
G1 X83.118 Y90.168 E28.13537
G1 X84.485 Y91.334 E28.32942
G1 X86.623 Y90.643 E28.57208
G1 X91.044 Y90.643 E29.04955
G1 X92.958 Y91.293 E29.26786
G1 X94.388 Y90.152 E29.46543
G1 X96.858 Y89.562 E29.7397
G1 X122.545 Y89.553 E32.5139
G1 X125.088 Y90.383 E32.8028
G1 X126.084 Y91.334 E32.95153
G1 X128.217 Y90.643 E33.19368
G1 X132.642 Y90.643 E33.67158
G1 X133.916 Y91.076 E33.8169
G1 X134.232 Y90.727 E33.86774
G1 X134.894 Y90.339 E33.95062
G1 X135.205 Y89.867 E34.01166
G1 X137.086 Y88.03 E34.29562
G1 X140.107 Y86.991 E34.64064
G1 X144.814 Y86.989 E35.149
G1 X147.285 Y87.665 E35.42567
G1 X149.277 Y89.118 E35.69196
G1 X151.181 Y91.425 E36.01501
G1 X152.276 Y94.045 E36.32169
G1 X152.277 Y96.561 E36.59342
G1 X152.507 Y96.879 E36.6358
G1 X153.749 Y99.532 E36.95217
G1 X153.749 Y111.507 E38.24547
G1 X153.253 Y113.554 E38.47295
G1 X152.164 Y115.118 E38.67877
G1 X151.939 Y116.066 E38.784
G1 X151.264 Y117.295 E38.93543
G1 X151 Y117.594 E38.97851
G1 X150.997 Y121.202 E39.36817
G1 X151.578 Y121.951 E39.47055
G1 X152.519 Y124.116 E39.7255
G1 X152.516 Y128.197 E40.16625
G1 X151.658 Y131.034 E40.48635
G1 X149.959 Y133.456 E40.80587
G1 X147.523 Y135.104 E41.12351
G1 X145.078 Y136.061 E41.40707
G1 X140.967 Y136.013 E41.85109
G1 X140.315 Y135.844 E41.92383
G1 X138.968 Y135.115 E42.08925
G1 X138.414 Y134.953 E42.15159
G1 X136.706 Y134.069 E42.35929
G1 X135.475 Y132.721 E42.55645
G1 X135.328 Y132.508 E42.5844
G1 X134.412 Y131.981 E42.69853
G1 X134.012 Y131.537 E42.76307
G1 X132.342 Y132.078 E42.95266
G1 X128.286 Y132.078 E43.39071
G1 X126.523 Y131.695 E43.58555
G1 X126.023 Y131.415 E43.64744
G1 X124.574 Y132.571 E43.84764
G1 X122.095 Y133.16 E44.12282
G1 X96.656 Y133.186 E46.87023
G1 X94.238 Y132.567 E47.1398
G1 X92.855 Y131.395 E47.33558
G1 X90.745 Y132.078 E47.5751
G1 X86.692 Y132.078 E48.01283
G1 X84.92 Y131.692 E48.20869
G1 X84.427 Y131.415 E48.26976
G1 X82.958 Y132.575 E48.47192
G1 X80.48 Y133.162 E48.74695
G1 X77.622 Y133.158 E49.05561
G1 X75.583 Y132.701 E49.28129
G1 X74.013 Y131.643 E49.48575
G1 X72.08 Y129.631 E49.78708
G1 X71.161 Y126.782 E50.11039
G1 X71.161 Y96.022 E53.43247
G1 X71.602 Y94.007 E53.65524
G1 X72.707 Y92.398 E53.86604
G1 X74.617 Y90.517 E54.15556
G0 F7200 X74.831 Y90.868
G1 F1800 X77.579 Y89.963 E54.46803
G1 X80.63 Y89.953 E54.79754
G1 X82.93 Y90.533 E55.05371
G1 X84.396 Y91.784 E55.26185
G1 X86.687 Y91.043 E55.5219
G1 X90.977 Y91.043 E55.98522
G1 X93.036 Y91.742 E56.22006
G1 X94.568 Y90.52 E56.4317
G1 X96.905 Y89.962 E56.69119
G1 X122.482 Y89.953 E59.45351
G1 X124.878 Y90.735 E59.72571
G1 X125.981 Y91.788 E59.8904
G1 X128.281 Y91.043 E60.15151
G1 X132.575 Y91.043 E60.61526
G1 X134.051 Y91.545 E60.78364
G1 X134.434 Y91.072 E60.84937
G1 X135.181 Y90.634 E60.94289
G1 X135.485 Y90.153 E61.00434
G1 X137.302 Y88.378 E61.27867
G1 X140.173 Y87.391 E61.60655
G1 X144.759 Y87.389 E62.10184
G1 X147.109 Y88.032 E62.36497
G1 X149.001 Y89.412 E62.61788
G1 X150.835 Y91.634 E62.92904
G1 X151.876 Y94.125 E63.22062
G1 X151.877 Y96.695 E63.49818
G1 X152.145 Y97.049 E63.54613
G1 X153.349 Y99.621 E63.85284
G1 X153.349 Y111.458 E65.13123
G1 X152.882 Y113.387 E65.34558
G1 X151.793 Y114.951 E65.55141
G1 X151.562 Y115.92 E65.65899
G1 X150.913 Y117.103 E65.80472
G1 X150.6 Y117.434 E65.85392
G1 X150.597 Y121.339 E66.27566
G1 X151.231 Y122.156 E66.38735
G1 X152.119 Y124.199 E66.62793
G1 X152.116 Y128.137 E67.05324
G1 X151.293 Y130.858 E67.36025
G1 X149.674 Y133.166 E67.66473
G1 X147.336 Y134.748 E67.96961
G1 X145.006 Y135.66 E68.23984
G1 X141.019 Y135.614 E68.67046
G1 X140.464 Y135.47 E68.73239
G1 X139.121 Y134.743 E68.89732
G1 X138.563 Y134.58 E68.9601
G1 X136.953 Y133.747 E69.15587
G1 X135.77 Y132.451 E69.34539
G1 X135.609 Y132.208 E69.37687
G1 X134.611 Y131.634 E69.50121
G1 X134.147 Y131.073 E69.57983
G1 X132.278 Y131.678 E69.792
G1 X128.33 Y131.678 E70.21838
G1 X126.608 Y131.304 E70.40869
G1 X125.992 Y130.928 E70.48664
G1 X124.394 Y132.203 E70.70742
G1 X122.049 Y132.76 E70.96773
G1 X96.708 Y132.786 E73.70456
G1 X94.426 Y132.202 E73.95896
G1 X92.944 Y130.945 E74.16883
G1 X90.681 Y131.678 E74.42574
G1 X86.736 Y131.678 E74.8518
G1 X85.005 Y131.301 E75.04313
G1 X84.398 Y130.928 E75.12007
G1 X82.779 Y132.207 E75.3429
G1 X80.435 Y132.762 E75.60305
G1 X77.666 Y132.758 E75.90211
G1 X75.744 Y132.327 E76.11484
G1 X74.273 Y131.336 E76.30639
G1 X72.433 Y129.42 E76.59329
G1 X71.561 Y126.718 E76.89993
G1 X71.561 Y96.066 E80.21034
G1 X71.976 Y94.169 E80.42006
G1 X73.014 Y92.657 E80.61814
G1 X74.831 Y90.868 E80.89353
G0 F7200 X75.045 Y91.219
G1 F1800 X77.644 Y90.363 E81.18905
G1 X80.58 Y90.353 E81.50614
G1 X82.742 Y90.898 E81.74694
G1 X84.307 Y92.234 E81.96917
G1 X86.751 Y91.443 E82.2466
G1 X90.91 Y91.443 E82.69578
G1 X93.115 Y92.192 E82.94728
G1 X94.749 Y90.888 E83.17306
G1 X96.952 Y90.362 E83.41767
G1 X122.419 Y90.353 E86.16811
G1 X124.668 Y91.087 E86.42361
G1 X125.878 Y92.242 E86.60426
G1 X128.345 Y91.443 E86.88433
G1 X132.508 Y91.443 E87.33393
G1 X134.203 Y92.019 E87.52727
G1 X134.636 Y91.417 E87.60736
G1 X135.467 Y90.93 E87.71138
G1 X135.799 Y90.405 E87.77847
G1 X137.517 Y88.727 E88.03783
G1 X140.239 Y87.791 E88.3487
G1 X144.704 Y87.789 E88.83092
G1 X146.933 Y88.399 E89.08051
G1 X148.723 Y89.704 E89.31975
G1 X150.49 Y91.845 E89.61956
G1 X151.476 Y94.205 E89.89579
G1 X151.477 Y96.836 E90.17993
G1 X151.783 Y97.219 E90.23288
G1 X152.949 Y99.71 E90.52992
G1 X152.949 Y111.409 E91.79341
G1 X152.511 Y113.22 E91.99464
G1 X151.549 Y114.602 E92.1765
G1 X151.434 Y114.732 E92.19524
G1 X151.186 Y115.774 E92.31092
G1 X150.562 Y116.911 E92.45099
G1 X150.2 Y117.266 E92.50575
G1 X150.197 Y121.476 E92.96043
G1 X150.884 Y122.361 E93.08143
G1 X151.719 Y124.282 E93.30765
G1 X151.716 Y128.077 E93.71751
G1 X150.928 Y130.682 E94.01144
G1 X149.389 Y132.876 E94.30088
G1 X147.149 Y134.392 E94.59299
G1 X144.934 Y135.259 E94.84989
G1 X141.024 Y135.214 E95.27219
G1 X140.654 Y135.118 E95.31348
G1 X139.27 Y134.369 E95.48343
G1 X138.747 Y134.225 E95.54202
G1 X137.2 Y133.425 E95.73011
G1 X136.104 Y132.231 E95.90516
G1 X135.891 Y131.908 E95.94694
G1 X134.873 Y131.323 E96.07375
G1 X134.282 Y130.608 E96.17393
G1 X132.214 Y131.278 E96.4087
G1 X128.374 Y131.278 E96.82342
G1 X126.757 Y130.927 E97.00213
G1 X125.961 Y130.441 E97.10285
G1 X124.214 Y131.835 E97.34423
G1 X122.003 Y132.36 E97.58966
G1 X96.756 Y132.386 E100.31634
G1 X94.616 Y131.838 E100.55491
G1 X93.033 Y130.495 E100.77912
G1 X90.617 Y131.278 E101.05341
G1 X86.78 Y131.278 E101.4678
G1 X85.158 Y130.925 E101.64708
G1 X84.37 Y130.44 E101.74701
G1 X82.6 Y131.839 E101.99067
G1 X80.39 Y132.362 E102.23594
G1 X77.71 Y132.358 E102.52538
G1 X75.905 Y131.953 E102.72517
G1 X74.533 Y131.029 E102.90382
G1 X72.786 Y129.209 E103.17628
G1 X71.961 Y126.654 E103.46625
G1 X71.961 Y96.11 E106.765
G1 X72.35 Y94.331 E106.96167
G1 X73.321 Y92.916 E107.14701
G1 X75.045 Y91.219 E107.40827
G0 F7200 X75.259 Y91.57
G1 F1800 X77.709 Y90.763 E107.68686
G1 X80.53 Y90.753 E107.99153
G1 X82.554 Y91.263 E108.21695
G1 X84.291 Y92.746 E108.46362
G1 X84.532 Y92.582 E108.4951
G1 X86.815 Y91.843 E108.75426
G1 X90.843 Y91.843 E109.18928
G1 X92.849 Y92.525 E109.41811
G1 X93.106 Y92.712 E109.45244
G1 X94.93 Y91.256 E109.70449
G1 X96.999 Y90.762 E109.93423
G1 X122.356 Y90.753 E112.67278
G1 X124.458 Y91.439 E112.91158
G1 X125.853 Y92.771 E113.11989
G1 X126.122 Y92.584 E113.15528
G1 X128.409 Y91.843 E113.41491
G1 X132.441 Y91.843 E113.85037
G1 X134.355 Y92.494 E114.06871
G1 X134.913 Y91.718 E114.17194
G1 X135.754 Y91.225 E114.27722
G1 X136.113 Y90.657 E114.34979
G1 X137.732 Y89.076 E114.59418
G1 X140.305 Y88.191 E114.88804
G1 X144.649 Y88.189 E115.3572
G1 X146.757 Y88.766 E115.59324
G1 X148.447 Y89.998 E115.81911
G1 X150.144 Y92.054 E116.10702
G1 X151.076 Y94.285 E116.36815
G1 X151.077 Y96.982 E116.65942
G1 X151.421 Y97.389 E116.71698
G1 X152.549 Y99.799 E117.00436
G1 X152.549 Y111.36 E118.25295
G1 X152.139 Y113.055 E118.44128
G1 X151.221 Y114.374 E118.61484
G1 X151.069 Y114.538 E118.63899
G1 X150.81 Y115.627 E118.75988
G1 X150.211 Y116.718 E118.8943
G1 X149.8 Y117.087 E118.95396
G1 X149.797 Y121.613 E119.44276
G1 X150.537 Y122.566 E119.57307
G1 X151.319 Y124.365 E119.78493
G1 X151.316 Y128.017 E120.17934
G1 X150.563 Y130.506 E120.46019
G1 X149.104 Y132.586 E120.73458
G1 X146.962 Y134.036 E121.01394
G1 X144.862 Y134.858 E121.25749
G1 X141.029 Y134.814 E121.67149
G1 X140.844 Y134.766 E121.69213
G1 X139.419 Y133.995 E121.86711
G1 X138.892 Y133.85 E121.92614
G1 X137.447 Y133.102 E122.10187
G1 X136.438 Y132.01 E122.26244
G1 X136.173 Y131.609 E122.31435
G1 X135.135 Y131.012 E122.44368
G1 X134.417 Y130.144 E122.56534
G1 X132.15 Y130.878 E122.82269
G1 X128.418 Y130.878 E123.22574
G1 X126.908 Y130.55 E123.39262
G1 X125.93 Y129.954 E123.51632
G1 X124.034 Y131.467 E123.77829
G1 X121.957 Y131.96 E124.00884
G1 X96.808 Y131.986 E126.72493
G1 X94.804 Y131.473 E126.94834
G1 X93.06 Y129.993 E127.19538
G1 X92.84 Y130.137 E127.22377
G1 X90.553 Y130.878 E127.48341
G1 X86.824 Y130.878 E127.88614
G1 X85.311 Y130.549 E128.05337
G1 X84.342 Y129.952 E128.17629
G1 X82.421 Y131.471 E128.44078
G1 X80.345 Y131.962 E128.67117
G1 X77.754 Y131.958 E128.951
G1 X76.068 Y131.58 E129.13761
G1 X74.789 Y130.718 E129.30418
G1 X73.139 Y129 E129.56144
G1 X72.361 Y126.59 E129.83495
G1 X72.361 Y96.155 E133.12193
G1 X72.725 Y94.492 E133.30578
G1 X73.628 Y93.175 E133.47824
G1 X75.259 Y91.57 E133.72538
G0 F7200 X75.473 Y91.921
G1 F1800 X77.774 Y91.163 E133.98702
G1 X80.48 Y91.153 E134.27927
G1 X82.366 Y91.628 E134.48932
G1 X84.101 Y93.11 E134.73575
G1 X84.241 Y93.308 E134.76194
G1 X84.655 Y92.963 E134.82014
G1 X86.879 Y92.243 E135.07261
G1 X90.776 Y92.243 E135.49348
G1 X92.72 Y92.904 E135.71524
G1 X93.157 Y93.291 E135.77828
G1 X93.359 Y93.021 E135.8147
G1 X95.11 Y91.624 E136.05662
G1 X97.046 Y91.162 E136.27158
G1 X122.293 Y91.153 E138.99826
G1 X124.248 Y91.791 E139.22036
G1 X125.834 Y93.306 E139.45723
G1 X126.245 Y92.965 E139.51491
G1 X128.473 Y92.243 E139.76785
G1 X132.374 Y92.243 E140.18916
G1 X134.227 Y92.873 E140.40054
G1 X134.458 Y93.036 E140.43107
G1 X135.19 Y92.019 E140.5664
G1 X136.041 Y91.52 E140.67294
G1 X136.427 Y90.909 E140.75099
G1 X137.947 Y89.425 E140.98042
G1 X140.371 Y88.591 E141.25727
G1 X144.595 Y88.589 E141.71346
G1 X146.581 Y89.132 E141.93582
G1 X148.171 Y90.292 E142.14839
G1 X149.798 Y92.263 E142.42441
G1 X150.676 Y94.365 E142.67043
G1 X150.677 Y97.134 E142.96949
G1 X151.059 Y97.559 E143.0312
G1 X152.149 Y99.888 E143.30892
G1 X152.149 Y111.312 E144.54271
G1 X151.768 Y112.888 E144.71782
G1 X150.893 Y114.145 E144.88323
G1 X150.706 Y114.337 E144.91218
G1 X150.434 Y115.48 E145.03907
G1 X149.86 Y116.525 E145.16783
G1 X149.4 Y116.896 E145.23166
G1 X149.397 Y121.75 E145.75589
G1 X150.19 Y122.771 E145.89551
G1 X150.919 Y124.448 E146.093
G1 X150.916 Y127.957 E146.47197
G1 X150.199 Y130.327 E146.73939
G1 X148.817 Y132.298 E146.99937
G1 X146.775 Y133.68 E147.26566
G1 X144.79 Y134.457 E147.49588
G1 X141.034 Y134.414 E147.90156
G1 X139.568 Y133.621 E148.08156
G1 X139.037 Y133.475 E148.14104
G1 X137.693 Y132.779 E148.3045
G1 X136.732 Y131.739 E148.45743
G1 X136.456 Y131.31 E148.51252
G1 X135.397 Y130.701 E148.64446
G1 X134.487 Y129.602 E148.79856
G1 X134.223 Y129.786 E148.83331
G1 X132.086 Y130.478 E149.07591
G1 X128.462 Y130.478 E149.4673
G1 X127.059 Y130.173 E149.62236
G1 X125.811 Y129.412 E149.78023
G1 X125.583 Y129.718 E149.82144
G1 X123.853 Y131.099 E150.06051
G1 X121.911 Y131.56 E150.27608
G1 X96.86 Y131.586 E152.98159
G1 X94.992 Y131.108 E153.18983
G1 X93.253 Y129.632 E153.43617
G1 X93.111 Y129.431 E153.46275
G1 X92.717 Y129.756 E153.51791
G1 X90.489 Y130.478 E153.77085
G1 X86.868 Y130.478 E154.16192
G1 X85.464 Y130.173 E154.31709
G1 X84.222 Y129.408 E154.47463
G1 X83.992 Y129.719 E154.51641
G1 X82.242 Y131.103 E154.75737
G1 X80.3 Y131.562 E154.97288
G1 X77.798 Y131.558 E155.2431
G1 X76.229 Y131.206 E155.41676
G1 X75.046 Y130.409 E155.57082
G1 X73.492 Y128.791 E155.8131
G1 X72.761 Y126.526 E156.07015
G1 X72.761 Y96.199 E159.34546
G1 X73.099 Y94.653 E159.51638
G1 X73.935 Y93.434 E159.67601
G1 X75.473 Y91.921 E159.90902
G0 F7200 X75.686 Y92.272
G1 F1800 X77.839 Y91.563 E160.15383
G1 X80.43 Y91.553 E160.43366
G1 X82.178 Y91.993 E160.62833
G1 X83.841 Y93.414 E160.86457
G1 X84.152 Y93.951 E160.93159
G1 X84.778 Y93.344 E161.02576
G1 X86.943 Y92.643 E161.27153
G1 X90.709 Y92.643 E161.67826
G1 X92.591 Y93.283 E161.89295
G1 X93.215 Y93.925 E161.98964
G1 X93.608 Y93.334 E162.06629
G1 X95.29 Y91.992 E162.29868
G1 X97.093 Y91.562 E162.49887
G1 X122.23 Y91.553 E165.21366
G1 X124.038 Y92.143 E165.41906
G1 X125.675 Y93.707 E165.66358
G1 X125.801 Y93.896 E165.68811
G1 X126.368 Y93.346 E165.77342
G1 X128.537 Y92.643 E166.01967
G1 X132.307 Y92.643 E166.42683
G1 X134.098 Y93.252 E166.63114
G1 X134.525 Y93.629 E166.69265
G1 X135.467 Y92.32 E166.86683
G1 X136.328 Y91.815 E166.97463
G1 X136.74 Y91.163 E167.05793
G1 X138.163 Y89.773 E167.27276
G1 X140.437 Y88.991 E167.53247
G1 X144.54 Y88.989 E167.97559
G1 X146.405 Y89.499 E168.18441
G1 X147.895 Y90.586 E168.3836
G1 X149.452 Y92.472 E168.64773
G1 X150.276 Y94.445 E168.87865
G1 X150.277 Y97.295 E169.18645
G1 X150.697 Y97.729 E169.25168
G1 X151.749 Y99.977 E169.51973
G1 X151.749 Y111.263 E170.73862
G1 X151.396 Y112.722 E170.90074
G1 X150.606 Y113.866 E171.05089
G1 X150.343 Y114.136 E171.0916
G1 X150.058 Y115.333 E171.22449
G1 X149.509 Y116.332 E171.3476
G1 X149 Y116.688 E171.41468
